X:1
T:Finger Lakes, CMD
T:Finger Lakes, CMD
T:Adam Geibel, 1900
T:Public Domain Courtesy of the Cyber Hymnal™
C:Adam Geibel, 1900
Z:Public Domain
Z:Courtesy of the Cyber Hymnal™
%%score ( 1 2 ) ( 3 4 )
L:1/8
Q:1/4=110
M:4/4
K:F
V:1 treble 
V:2 treble 
V:3 bass 
V:4 bass 
V:1
 C2 | C3 [CF] (FG) (AB) | [Fc]2 [Fd]2 [Fc]2 [FA]2 | [FA]3 [FA] [GB]2 [FA]2 | [EG]6 C2 | %5
 C3 [CF] (FG) (AB) | [Fc]2 [Fd]2 [Fc]2 [FB]2 | [FA]3 [CF] [FA]2 [EG]2 | F6 [Fc]2 | %9
 [Fd]3 [Fd] (dc) (Bd) | [Fc]2 [FA]2 [Fc]2 [FA]2 | [EG]3 [EG] [Ge]2 [Fd]2 | [Ec]6 C2 | %13
 C3 [CF] (FG) (AB) | [Fc]2 [Fd]2 [Fc]2 [FB]2 | [FA]3 [CF] [FA]2 [EG]2 | F6 |] %17
V:2
 C2 | C3 C2 F2 x | x8 | x8 | x6 C2 | C3 C2 F2 x | x8 | x8 | F6 x2 | x4 F2 F2 | x8 | x8 | x6 C2 | %13
 C3 C2 F2 x | x8 | x8 | F6 |] %17
V:3
 [F,A,]2 | [F,A,]3 [F,A,] (A,B,) (CB,) | [F,A,]2 [F,B,]2 [F,A,]2 [F,C]2 | %3
 [F,C]3 [F,C] [E,C]2 [F,C]2 | [C,C]6 [C,B,]2 | [F,A,]3 [F,A,] (A,B,) (CB,) | %6
 [F,A,]2 [F,B,]2 [F,A,]2 [B,,D]2 | [C,C]3 [C,A,] [C,C]2 [C,B,]2 | [F,A,]6 [F,A,]2 | %9
 [B,,B,]3 [B,,B,] ([B,,B,][C,A,]) B,2 | [F,A,]2 [F,C]2 [F,A,]2 [F,C]2 | %11
 [G,C]3 [G,C] [G,=B,]2 [G,B,]2 | [C,C]6 [C,B,]2 | [F,A,]3 [F,A,] (A,B,) (CB,) | %14
 [F,A,]2 [F,B,]2 [F,A,]2 [B,,D]2 | [C,C]3 [C,A,] [C,C]2 [C,B,]2 | [F,A,]6 |] %17
V:4
 x2 | x4 F,2 F,2 | x8 | x8 | x8 | x4 F,2 F,2 | x8 | x8 | x8 | x6 (D,B,,) | x8 | x8 | x8 | %13
 x4 F,2 F,2 | x8 | x8 | x6 |] %17

